snowshoeing.svg

<svg fill="currentColor" viewBox="0 0 24 24"><path d="M12.5 3.5c0-1.1.9-2 2-2s2 .9 2 2-.9 2-2 2-2-.9-2-2M6.32 19.03l-1.14-1.47L4 18.5l2.38 3.04c.51.65 1.16 1.15 1.88 1.41.28.1.53.05.74-.11.28-.23.4-.7.1-1.07-.1-.1-.2-.17-.31-.22a3 3 0 0 1-1.14-.83l-.08-.1L11 18.2l.89-3.2L14 17v4.5h-2V23h3.87c.82 0 1.63-.21 2.26-.61.26-.16.37-.39.37-.64 0-.38-.3-.75-.77-.75-.13 0-.26.04-.37.1-.4.23-.86.37-1.36.4v-6l-2.11-2 .61-3C15.79 12 17.8 13 20 13v-2c-1.9 0-3.5-1-4.31-2.42l-1-1.58c-.4-.6-1-1-1.69-1-.76 0-1.42.34-6 2.28V13h2V9.58l1.79-.7L9.2 17z"/></svg>

<svg  viewBox="0 0 24 24" fill="currentColor"><path  d="M12.5 3.5C12.5 2.4 13.4 1.5 14.5 1.5S16.5 2.4 16.5 3.5 15.6 5.5 14.5 5.5 12.5 4.6 12.5 3.5M6.32 19.03L5.18 17.56L4 18.5L6.38 21.54C6.89 22.19 7.54 22.69 8.26 22.95C8.54 23.05 8.79 23 9 22.84C9.28 22.61 9.4 22.14 9.1 21.77C9 21.67 8.9 21.6 8.79 21.55C8.36 21.37 7.97 21.1 7.65 20.72L7.57 20.62L11 18.2L11.89 15L14 17V21.5H12V23H15.87C16.69 23 17.5 22.79 18.13 22.39C18.39 22.23 18.5 22 18.5 21.75C18.5 21.37 18.2 21 17.73 21C17.6 21 17.47 21.04 17.36 21.1C16.96 21.33 16.5 21.47 16 21.5V15.5L13.89 13.5L14.5 10.5C15.79 12 17.8 13 20 13V11C18.1 11 16.5 10 15.69 8.58L14.69 7C14.29 6.4 13.69 6 13 6C12.24 6 11.58 6.34 7 8.28V13H9V9.58L10.79 8.88L9.2 17L6.32 19.03Z"/></svg>
